assets/components_previews/layout/dark/fragment.svg

<svg xmlns="http://www.w3.org/2000/svg" width="320" height="232" fill="none" viewBox="0 0 320 232"><path fill="#5F43D0" fill-rule="evenodd" d="M165.118 103.222a1 1 0 0 0 .104 1.411l1.84 1.585c.366.316.587.508.728.657-.141.149-.362.341-.728.657l-1.84 1.586a1 1 0 0 0 1.306 1.515l1.84-1.586.043-.038c.349-.3.684-.589.923-.859.262-.296.541-.713.541-1.275s-.279-.979-.541-1.275c-.239-.27-.574-.558-.923-.859l-.043-.038-1.84-1.585a1 1 0 0 0-1.41.104m-2.486 0a1 1 0 0 1-.104 1.411l-1.84 1.585c-.366.316-.587.508-.728.657.141.149.362.341.728.657l1.84 1.586a1 1 0 0 1-1.306 1.515l-1.84-1.586-.043-.038c-.349-.3-.684-.589-.923-.859-.262-.296-.541-.713-.541-1.275s.279-.979.541-1.275c.239-.27.574-.558.923-.859l.043-.038 1.84-1.585a1 1 0 0 1 1.41.104" clip-rule="evenodd"/><path fill="#5F43D0" d="M154.812 110.522c.982.103.545.103 2.086.103a.978.978 0 0 0 0-1.955c-1.609 0-1.015-.001-1.885-.092-.854-.089-1.337-.256-1.695-.509a3 3 0 0 1-.632-.596c-.255-.323-.425-.755-.517-1.542-.095-.81-.097-1.867-.097-3.391v-2.9c0-.267 0-.906.281-1.378.173-.29.394-.534.622-.658.366-.2.787-.312 1.233-.312l1.041.036c.38.008.823-.004 1.251-.119a2.42 2.42 0 0 0 1.709-1.709c.115-.428.127-.871.119-1.251l-.036-1.04c0-.469.124-.876.341-1.254.127-.22.348-.422.653-.6.462-.269 1.015-.271 1.353-.273l.993-.002c1.834 0 2.501.014 3.005.19.872.308 1.538.95 1.848 1.735.078.197.133.455.162.903.03.457.031 1.04.031 1.88v5.113a.974.974 0 1 0 1.947 0v-5.146c0-.8 0-1.447-.035-1.975-.036-.545-.111-1.03-.294-1.495-.529-1.339-1.638-2.373-3.014-2.858-.859-.303-2.331-.303-3.886-.302-2.84 0-4.526 0-5.909.487-2.22.782-3.994 2.445-4.837 4.58-.281.713-.406 1.477-.466 2.394-.059.9-.059 2.013-.059 3.432v2.583c0 1.448 0 2.621.11 3.558.114.974.357 1.812.927 2.531.295.372.644.701 1.034.977.745.527 1.606.75 2.616.855" opacity=".4"/><path fill="#5F43D0" d="M111.986 138v-8.8h1.952v1.776h.544l-.592.48q0-1.12.656-1.76.672-.656 1.824-.656 1.344 0 2.096.864.753.864.752 2.416v.832h-2v-.736q0-.816-.416-1.232t-1.184-.416q-.784 0-1.216.48-.416.48-.416 1.36V138zm7.978 0 3.072-4.544-2.864-4.256h2.256l1.36 2.16q.128.192.224.432.112.24.176.384.064-.144.176-.384t.224-.432l1.36-2.16h2.272l-2.864 4.256 3.056 4.544h-2.272l-1.52-2.416a5 5 0 0 1-.24-.448 7 7 0 0 0-.192-.384l-.176.384q-.112.24-.24.448L122.236 138zm13.178.16q-.672 0-1.088-.4-.4-.416-.4-1.072 0-.672.4-1.072.416-.416 1.088-.416t1.072.416q.416.4.416 1.072 0 .656-.416 1.072-.4.4-1.072.4m7.354-.16v-5.792h-2.416V130.4h2.416v-1.552q0-1.152.768-1.84t2.032-.688h2.576v1.76h-2.528q-.384 0-.624.224-.224.209-.224.576v1.52h3.376v1.808h-3.376V138zm7.305 0v-8.8h1.952v1.776h.544l-.592.48q0-1.12.656-1.76.672-.656 1.824-.656 1.344 0 2.096.864t.752 2.416v.832h-2v-.736q0-.816-.416-1.232t-1.184-.416q-.784 0-1.216.48-.416.48-.416 1.36V138zm11.226.16q-1.344 0-2.128-.752-.768-.768-.768-2 0-.864.4-1.488a2.6 2.6 0 0 1 1.136-.96q.752-.352 1.76-.352h2.144v-.624q0-.64-.4-.976-.384-.352-1.152-.352-.704 0-1.136.272a.94.94 0 0 0-.448.768h-1.92q.064-1.2.992-1.92.944-.736 2.528-.736 1.68 0 2.608.784t.928 2.208V138h-1.952v-1.68h-.32l.352-.288q0 .656-.32 1.136-.32.464-.912.736-.593.256-1.392.256m.64-1.632q.88 0 1.392-.432t.512-1.152v-1.04h-2.048q-.656 0-1.04.368-.384.352-.384.944 0 .593.4.96.416.352 1.168.352m6.922 4.352v-1.664h2.48q.704 0 1.088-.384.384-.367.384-1.008v-.528l.032-1.776h-.432l.624-.768q0 1.264-.688 2-.688.72-1.84.72-1.344 0-2.144-.896-.784-.912-.784-2.464V132.4q0-1.536.784-2.448.8-.912 2.144-.912 1.152 0 1.84.736t.688 2l-.624-1.056h.432v-1.52h1.952v8.672q0 1.392-.928 2.192-.912.816-2.496.816zm2.32-5.12q.768 0 1.184-.448.432-.464.432-1.28v-1.536q0-.816-.432-1.264-.416-.464-1.184-.464t-1.184.448q-.416.432-.416 1.216v1.664q0 .784.416 1.232.416.432 1.184.432m4.954 2.24v-8.8h1.664v1.28h.336l-.304.224q0-.736.4-1.2t1.072-.464q.72 0 1.168.56.464.544.464 1.424l-.384-.576h.544l-.256.256q.015-.768.432-1.216.415-.448 1.104-.448.815 0 1.328.624.528.624.528 1.632V138h-1.76v-6.56q0-.432-.208-.672-.192-.256-.56-.256a.64.64 0 0 0-.544.256q-.176.24-.176.672V138h-1.6v-6.56q0-.432-.192-.672-.177-.256-.528-.256-.369 0-.576.256-.192.24-.192.672V138zm13.017.16q-1.12 0-1.952-.432a3.2 3.2 0 0 1-1.296-1.216q-.447-.8-.448-1.872v-2.08q0-1.072.448-1.856.465-.8 1.296-1.232.833-.432 1.952-.432 1.104 0 1.92.432.833.432 1.28 1.216.465.768.464 1.808v1.6h-5.44v.608q0 .896.464 1.36.465.448 1.312.448.624 0 1.056-.208.448-.224.528-.64h1.984q-.207 1.136-1.184 1.824-.975.672-2.384.672m1.744-5.2v-.48q0-.912-.448-1.408-.432-.496-1.296-.496-.863 0-1.328.512-.448.496-.448 1.408v.304l3.664-.016zm3.626 5.04v-8.8h1.952v1.68h.544l-.592.464q.017-1.056.672-1.68.656-.624 1.744-.624 1.296 0 2.064.864.784.864.784 2.32V138h-2v-5.536q0-.816-.416-1.248-.416-.448-1.152-.448-.752 0-1.184.448-.416.448-.416 1.28V138zm13.402 0q-1.231 0-1.968-.704-.72-.72-.72-1.936v-4.352h-2.432V129.2h2.432v-2.48h2.016v2.48h3.504v1.808h-3.504v4.304a.98.98 0 0 0 .208.64q.224.24.608.24h2.608V138z"/></svg>

<svg width="320" height="232" viewBox="0 0 320 232" fill="none" xmlns="http://www.w3.org/2000/svg">
<path fill-rule="evenodd" clip-rule="evenodd" d="M165.118 103.222C164.757 103.641 164.804 104.272 165.222 104.633L167.062 106.218C167.428 106.534 167.649 106.726 167.79 106.875C167.649 107.024 167.428 107.216 167.062 107.532L165.222 109.118C164.804 109.478 164.757 110.11 165.118 110.528C165.478 110.946 166.11 110.993 166.528 110.633L168.368 109.047C168.382 109.034 168.397 109.022 168.411 109.009C168.76 108.709 169.095 108.42 169.334 108.15C169.596 107.854 169.875 107.437 169.875 106.875C169.875 106.313 169.596 105.896 169.334 105.6C169.095 105.33 168.76 105.042 168.411 104.741C168.397 104.728 168.382 104.716 168.368 104.703L166.528 103.118C166.11 102.757 165.478 102.804 165.118 103.222Z" fill="#5F43D0"/>
<path fill-rule="evenodd" clip-rule="evenodd" d="M162.632 103.222C162.993 103.641 162.946 104.272 162.528 104.633L160.688 106.218C160.322 106.534 160.101 106.726 159.96 106.875C160.101 107.024 160.322 107.216 160.688 107.532L162.528 109.118C162.946 109.478 162.993 110.11 162.632 110.528C162.272 110.946 161.641 110.993 161.222 110.633L159.382 109.047C159.368 109.034 159.353 109.022 159.339 109.009C158.99 108.709 158.655 108.42 158.416 108.15C158.154 107.854 157.875 107.437 157.875 106.875C157.875 106.313 158.154 105.896 158.416 105.6C158.655 105.33 158.99 105.042 159.339 104.741C159.353 104.728 159.368 104.716 159.382 104.703L161.222 103.118C161.641 102.757 162.272 102.804 162.632 103.222Z" fill="#5F43D0"/>
<path opacity="0.4" d="M154.812 110.522C155.794 110.625 155.357 110.625 156.898 110.625C157.437 110.625 157.875 110.187 157.875 109.648C157.875 109.108 157.437 108.67 156.898 108.67C155.289 108.67 155.883 108.669 155.013 108.578C154.159 108.489 153.676 108.322 153.318 108.069C153.076 107.898 152.864 107.697 152.686 107.473C152.431 107.15 152.261 106.718 152.169 105.931C152.074 105.121 152.072 104.064 152.072 102.54L152.072 99.6401C152.072 99.3731 152.072 98.7345 152.353 98.2624C152.526 97.9713 152.747 97.7282 152.975 97.6044C153.341 97.4049 153.762 97.2915 154.208 97.2915L155.249 97.328C155.629 97.3359 156.072 97.3239 156.5 97.2092C157.334 96.9857 157.986 96.3343 158.209 95.5003C158.324 95.0722 158.336 94.6287 158.328 94.2486L158.292 93.2082C158.292 92.7405 158.416 92.3334 158.633 91.955C158.76 91.7344 158.981 91.5325 159.286 91.3552C159.748 91.0863 160.301 91.0838 160.639 91.0823C160.977 91.0807 161.334 91.0796 161.632 91.0796C163.466 91.0796 164.133 91.0935 164.637 91.2709C165.509 91.5783 166.175 92.22 166.485 93.0053C166.563 93.202 166.618 93.4604 166.647 93.9083C166.677 94.365 166.678 94.948 166.678 95.7882V100.901C166.678 101.439 167.114 101.875 167.651 101.875C168.189 101.875 168.625 101.439 168.625 100.901V95.755C168.625 94.9559 168.625 94.3083 168.59 93.7797C168.554 93.2351 168.479 92.7494 168.296 92.2853C167.767 90.946 166.658 89.9117 165.282 89.4267C164.423 89.1241 162.951 89.1245 161.396 89.125C158.556 89.1247 156.87 89.1245 155.487 89.6115C153.267 90.3937 151.493 92.0565 150.65 94.1925C150.369 94.9045 150.244 95.6692 150.184 96.586C150.125 97.4867 150.125 98.5994 150.125 100.018V102.601C150.125 104.049 150.125 105.222 150.235 106.159C150.349 107.133 150.592 107.971 151.162 108.69C151.457 109.062 151.806 109.391 152.196 109.667C152.941 110.194 153.802 110.417 154.812 110.522Z" fill="#5F43D0"/>
<path d="M111.986 138V129.2H113.938V130.976H114.482L113.89 131.456C113.89 130.709 114.109 130.123 114.546 129.696C114.994 129.259 115.602 129.04 116.37 129.04C117.266 129.04 117.965 129.328 118.466 129.904C118.968 130.48 119.218 131.285 119.218 132.32V133.152H117.218V132.416C117.218 131.872 117.08 131.461 116.802 131.184C116.525 130.907 116.13 130.768 115.618 130.768C115.096 130.768 114.69 130.928 114.402 131.248C114.125 131.568 113.986 132.021 113.986 132.608V138H111.986ZM119.964 138L123.036 133.456L120.172 129.2H122.428L123.788 131.36C123.873 131.488 123.948 131.632 124.012 131.792C124.087 131.952 124.145 132.08 124.188 132.176C124.231 132.08 124.289 131.952 124.364 131.792C124.439 131.632 124.513 131.488 124.588 131.36L125.948 129.2H128.22L125.356 133.456L128.412 138H126.14L124.62 135.584C124.535 135.445 124.455 135.296 124.38 135.136C124.305 134.976 124.241 134.848 124.188 134.752C124.145 134.848 124.087 134.976 124.012 135.136C123.937 135.296 123.857 135.445 123.772 135.584L122.236 138H119.964ZM133.142 138.16C132.694 138.16 132.331 138.027 132.054 137.76C131.787 137.483 131.654 137.125 131.654 136.688C131.654 136.24 131.787 135.883 132.054 135.616C132.331 135.339 132.694 135.2 133.142 135.2C133.59 135.2 133.947 135.339 134.214 135.616C134.491 135.883 134.63 136.24 134.63 136.688C134.63 137.125 134.491 137.483 134.214 137.76C133.947 138.027 133.59 138.16 133.142 138.16ZM140.496 138V132.208H138.08V130.4H140.496V128.848C140.496 128.08 140.752 127.467 141.264 127.008C141.776 126.549 142.453 126.32 143.296 126.32H145.872V128.08H143.344C143.088 128.08 142.88 128.155 142.72 128.304C142.57 128.443 142.496 128.635 142.496 128.88V130.4H145.872V132.208H142.496V138H140.496ZM147.801 138V129.2H149.753V130.976H150.297L149.705 131.456C149.705 130.709 149.924 130.123 150.361 129.696C150.809 129.259 151.417 129.04 152.185 129.04C153.081 129.04 153.78 129.328 154.281 129.904C154.783 130.48 155.033 131.285 155.033 132.32V133.152H153.033V132.416C153.033 131.872 152.895 131.461 152.617 131.184C152.34 130.907 151.945 130.768 151.433 130.768C150.911 130.768 150.505 130.928 150.217 131.248C149.94 131.568 149.801 132.021 149.801 132.608V138H147.801ZM159.027 138.16C158.131 138.16 157.422 137.909 156.899 137.408C156.387 136.896 156.131 136.229 156.131 135.408C156.131 134.832 156.264 134.336 156.531 133.92C156.798 133.504 157.176 133.184 157.667 132.96C158.168 132.725 158.755 132.608 159.427 132.608H161.571V131.984C161.571 131.557 161.438 131.232 161.171 131.008C160.915 130.773 160.531 130.656 160.019 130.656C159.55 130.656 159.171 130.747 158.883 130.928C158.606 131.109 158.456 131.365 158.435 131.696H156.515C156.558 130.896 156.888 130.256 157.507 129.776C158.136 129.285 158.979 129.04 160.035 129.04C161.155 129.04 162.024 129.301 162.643 129.824C163.262 130.347 163.571 131.083 163.571 132.032V138H161.619V136.32H161.299L161.651 136.032C161.651 136.469 161.544 136.848 161.331 137.168C161.118 137.477 160.814 137.723 160.419 137.904C160.024 138.075 159.56 138.16 159.027 138.16ZM159.667 136.528C160.254 136.528 160.718 136.384 161.059 136.096C161.4 135.808 161.571 135.424 161.571 134.944V133.904H159.523C159.086 133.904 158.739 134.027 158.483 134.272C158.227 134.507 158.099 134.821 158.099 135.216C158.099 135.611 158.232 135.931 158.499 136.176C158.776 136.411 159.166 136.528 159.667 136.528ZM166.589 140.88V139.216H169.069C169.538 139.216 169.901 139.088 170.157 138.832C170.413 138.587 170.541 138.251 170.541 137.824V137.296L170.573 135.52H170.141L170.765 134.752C170.765 135.595 170.536 136.261 170.077 136.752C169.618 137.232 169.005 137.472 168.237 137.472C167.341 137.472 166.626 137.173 166.093 136.576C165.57 135.968 165.309 135.147 165.309 134.112V132.4C165.309 131.376 165.57 130.56 166.093 129.952C166.626 129.344 167.341 129.04 168.237 129.04C169.005 129.04 169.618 129.285 170.077 129.776C170.536 130.267 170.765 130.933 170.765 131.776L170.141 130.72H170.573V129.2H172.525V137.872C172.525 138.8 172.216 139.531 171.597 140.064C170.989 140.608 170.157 140.88 169.101 140.88H166.589ZM168.909 135.76C169.421 135.76 169.816 135.611 170.093 135.312C170.381 135.003 170.525 134.576 170.525 134.032V132.496C170.525 131.952 170.381 131.531 170.093 131.232C169.816 130.923 169.421 130.768 168.909 130.768C168.397 130.768 168.002 130.917 167.725 131.216C167.448 131.504 167.309 131.909 167.309 132.432V134.096C167.309 134.619 167.448 135.029 167.725 135.328C168.002 135.616 168.397 135.76 168.909 135.76ZM173.863 138V129.2H175.527V130.48H175.863L175.559 130.704C175.559 130.213 175.692 129.813 175.959 129.504C176.225 129.195 176.583 129.04 177.031 129.04C177.511 129.04 177.9 129.227 178.199 129.6C178.508 129.963 178.663 130.437 178.663 131.024L178.279 130.448H178.823L178.567 130.704C178.577 130.192 178.721 129.787 178.999 129.488C179.276 129.189 179.644 129.04 180.103 129.04C180.647 129.04 181.089 129.248 181.431 129.664C181.783 130.08 181.959 130.624 181.959 131.296V138H180.199V131.44C180.199 131.152 180.129 130.928 179.991 130.768C179.863 130.597 179.676 130.512 179.431 130.512C179.196 130.512 179.015 130.597 178.887 130.768C178.769 130.928 178.711 131.152 178.711 131.44V138H177.111V131.44C177.111 131.152 177.047 130.928 176.919 130.768C176.801 130.597 176.625 130.512 176.391 130.512C176.145 130.512 175.953 130.597 175.815 130.768C175.687 130.928 175.623 131.152 175.623 131.44V138H173.863ZM186.88 138.16C186.134 138.16 185.483 138.016 184.928 137.728C184.374 137.44 183.942 137.035 183.632 136.512C183.334 135.979 183.184 135.355 183.184 134.64V132.56C183.184 131.845 183.334 131.227 183.632 130.704C183.942 130.171 184.374 129.76 184.928 129.472C185.483 129.184 186.134 129.04 186.88 129.04C187.616 129.04 188.256 129.184 188.8 129.472C189.355 129.76 189.782 130.165 190.08 130.688C190.39 131.2 190.544 131.803 190.544 132.496V134.096H185.104V134.704C185.104 135.301 185.259 135.755 185.568 136.064C185.878 136.363 186.315 136.512 186.88 136.512C187.296 136.512 187.648 136.443 187.936 136.304C188.235 136.155 188.411 135.941 188.464 135.664H190.448C190.31 136.421 189.915 137.029 189.264 137.488C188.614 137.936 187.819 138.16 186.88 138.16ZM188.624 132.96V132.48C188.624 131.872 188.475 131.403 188.176 131.072C187.888 130.741 187.456 130.576 186.88 130.576C186.304 130.576 185.862 130.747 185.552 131.088C185.254 131.419 185.104 131.888 185.104 132.496V132.8L188.768 132.784L188.624 132.96ZM192.25 138V129.2H194.202V130.88H194.746L194.154 131.344C194.165 130.64 194.389 130.08 194.826 129.664C195.263 129.248 195.845 129.04 196.57 129.04C197.434 129.04 198.122 129.328 198.634 129.904C199.157 130.48 199.418 131.253 199.418 132.224V138H197.418V132.464C197.418 131.92 197.279 131.504 197.002 131.216C196.725 130.917 196.341 130.768 195.85 130.768C195.349 130.768 194.954 130.917 194.666 131.216C194.389 131.515 194.25 131.941 194.25 132.496V138H192.25ZM205.652 138C204.831 138 204.175 137.765 203.684 137.296C203.204 136.816 202.964 136.171 202.964 135.36V131.008H200.532V129.2H202.964V126.72H204.98V129.2H208.484V131.008H204.98V135.312C204.98 135.568 205.049 135.781 205.188 135.952C205.337 136.112 205.54 136.192 205.796 136.192H208.404V138H205.652Z" fill="#5F43D0"/>
</svg>
